packages/icons/raw/imported/GenericBookmark.svg

<svg width="32" height="32" viewBox="0 0 32 32" fill="none" xmlns="http://www.w3.org/2000/svg">
<path d="M8.84196 25.2023L9.14324 25.6013H9.14324L8.84196 25.2023ZM12.9273 22.1178L13.2286 22.5168L13.2286 22.5168L12.9273 22.1178ZM14.6881 22.1178L14.9894 21.7187L14.6881 22.1178ZM18.7734 25.2023L19.0747 24.8032L18.7734 25.2023ZM21.1154 12.5798C20.8392 12.5798 20.6154 12.8037 20.6154 13.0798C20.6154 13.3559 20.8392 13.5798 21.1154 13.5798V12.5798ZM6 8.69327V24.0352H7V8.69327H6ZM9.14324 25.6013L13.2286 22.5168L12.626 21.7187L8.54068 24.8032L9.14324 25.6013ZM14.3868 22.5168L18.4721 25.6013L19.0747 24.8032L14.9894 21.7187L14.3868 22.5168ZM21.6154 24.0352V8.52455H20.6154V24.0352H21.6154ZM18.4721 25.6013C19.7648 26.5773 21.6154 25.6544 21.6154 24.0352H20.6154C20.6154 24.8297 19.7079 25.2813 19.0747 24.8032L18.4721 25.6013ZM13.2286 22.5168C13.5713 22.258 14.0441 22.258 14.3868 22.5168L14.9894 21.7187C14.29 21.1907 13.3254 21.1907 12.626 21.7187L13.2286 22.5168ZM6 24.0352C6 25.6544 7.85055 26.5773 9.14324 25.6013L8.54068 24.8032C7.90748 25.2813 7 24.8297 7 24.0352H6ZM21.6154 8.52455C21.6154 7.7193 22.3348 7 23.3077 7V6C21.859 6 20.6154 7.09355 20.6154 8.52455H21.6154ZM23.3077 7C24.2806 7 25 7.7193 25 8.52455H26C26 7.09355 24.7564 6 23.3077 6V7ZM25 8.52455V11.6176H26V8.52455H25ZM24.0385 12.5798H21.1154V13.5798H24.0385V12.5798ZM25 11.6176C25 12.1492 24.5693 12.5798 24.0385 12.5798V13.5798C25.122 13.5798 26 12.7011 26 11.6176H25ZM7 8.69327C7 7.7315 7.73078 7 8.57444 7V6C7.12674 6 6 7.23242 6 8.69327H7ZM8.57444 7H23.3077V6H8.57444V7Z" fill="black"/>
</svg>

<svg width="32" height="32" fill="none" xmlns="http://www.w3.org/2000/svg"><path d="m8.842 25.202.301.4-.301-.4Zm4.085-3.084.302.399-.302-.4Zm1.761 0 .301-.4-.3.4Zm4.085 3.084.302-.399-.302.4Zm2.342-12.622a.5.5 0 1 0 0 1v-1ZM6 8.693v15.342h1V8.693H6Zm3.143 16.908 4.086-3.084-.603-.798-4.085 3.084.602.798Zm5.244-3.084 4.085 3.084.603-.798-4.086-3.084-.602.798Zm7.228 1.518V8.525h-1v15.51h1Zm-3.143 1.566c1.293.976 3.143.053 3.143-1.566h-1a.961.961 0 0 1-1.54.768l-.603.798Zm-5.243-3.084a.96.96 0 0 1 1.158 0l.602-.798a1.961 1.961 0 0 0-2.363 0l.603.798ZM6 24.035c0 1.62 1.85 2.542 3.143 1.566l-.602-.798A.961.961 0 0 1 7 24.035H6Zm15.615-15.51c0-.806.72-1.525 1.693-1.525V6c-1.449 0-2.693 1.094-2.693 2.525h1ZM23.308 7C24.28 7 25 7.72 25 8.525h1C26 7.094 24.756 6 23.308 6v1ZM25 8.525v3.093h1V8.525h-1Zm-.962 4.055h-2.923v1h2.924v-1Zm.962-.962c0 .531-.43.962-.962.962v1A1.962 1.962 0 0 0 26 11.618h-1ZM7 8.693C7 7.731 7.73 7 8.574 7V6C7.127 6 6 7.232 6 8.693h1ZM8.574 7h14.734V6H8.574v1Z" fill="#000"/></svg>
